public/images/location.svg

<svg fill="none" height="45" viewBox="0 0 51 45" width="51" xmlns="http://www.w3.org/2000/svg" xmlns:xlink="http://www.w3.org/1999/xlink"><filter id="a" color-interpolation-filters="sRGB" filterUnits="userSpaceOnUse" height="52.0629" width="57.7454" x="-3.6001" y="-1.5813"><feFlood flood-opacity="0" result="BackgroundImageFix"/><feColorMatrix in="SourceAlpha" result="hardAlpha" type="matrix" values="0 0 0 0 0 0 0 0 0 0 0 0 0 0 0 0 0 0 127 0"/><feOffset dy="2"/><feGaussianBlur stdDeviation="2"/><feComposite in2="hardAlpha" operator="out"/><feColorMatrix type="matrix" values="0 0 0 0 0.109804 0 0 0 0 0.109804 0 0 0 0 0.109804 0 0 0 0.2 0"/><feBlend in2="BackgroundImageFix" mode="normal" result="effect1_dropShadow_1535_14463"/><feBlend in="SourceGraphic" in2="effect1_dropShadow_1535_14463" mode="normal" result="shape"/></filter><g filter="url(#a)"><path d="m24.638 7.6054s-6.6558.14112-10.2374 4.5694c-3.5741 4.4215-6.34545 15.1729 10.298 25.1314 0 0 13.236-5.4026 14.0917-15.9659.8481-10.3818-6.5196-13.9768-14.1523-13.7349z" fill="#e30613"/><path d="m35.8904 22.4827s-2.2414-.3629-4.6796-1.4515c-.7496-.3359-1.3706-.5174-1.8703-.6047.6133-.383 1.1661-.9408 1.6886-1.6799.8556-1.223 2.1277-2.997 2.1277-2.997.0379-.0537.0303-.1209-.0151-.1747-.0455-.0538-.1212-.0739-.1969-.0538-1.6053.3562-3.1727 1.3977-4.3161 2.157-.4922.3293-.9162.6115-1.1434.6989-.0454.0134-.0757.0202-.0984.0202-.2953-1.2969-.4316-2.6812.1893-4.1998.7799-1.9084-.7042-3.7697-.7648-3.8504-.053-.0604-.1439-.0806-.2272-.0604-.0832.0268-.1287.1007-.1211.1679 0 .0202.3332 1.8345-1.4993 4.2334-.8329 1.0886-1.0979 2.2712-1.1358 3.2859-.7269-.6988-1.5447-1.149-2.5972-1.4649-1.6886-.4972-3.6725-1.8949-3.6876-1.9083-.0606-.0471-.159-.0538-.2272-.0135-.0681.0403-.0984.1143-.0757.1747.0378.0941.9541 2.3452 2.5972 3.2053.8708.4569 1.5447 1.2902 1.9612 1.9285-.6815.2151-1.6734.6451-2.4534 1.5119-1.0449 1.1491-4.4978 1.7673-4.5357 1.774-.0832.0135-.1514.0807-.1514.1546s.0606.1344.1514.1545c3.1652.551 7.0269-1.1356 7.1708-1.2028.3786-.1277.6739-.1075.8784.0672.3786.3293.3862 1.1424.0151 1.774-.5755.9676-.6133 2.9029-.2801 3.2725.0832.094.1893.1075.2498.1075h.0303c.2499-.0336.3105-.1546.3862-.2957.106-.2083.3256-.6384 1.3251-1.5119.8027-.7056 1.098-1.3574 1.1813-1.8479.371.3965.9616.8063 1.9081 1.0281 1.8779.4368 2.1354.9945 2.1354 1.0012.0227.0672.106.1143.1893.1075h.0378c.0985-.0201.159-.1008.1439-.1814-.0227-.0806-.5073-1.989-1.6659-2.7886-.1211-.0874-.2347-.168-.3483-.2487.5301.0874 1.1888.2083 1.999.383.8254.1748 1.6432.2218 2.4004.2016 1.84-.0537 3.2863-.5308 3.3696-.5577.0757-.0269.1287-.0941.1136-.1613 0-.0672-.0682-.1209-.1515-.1344" fill="#52ae32"/></g></svg>

<svg width="51" height="45" viewBox="0 0 51 45" fill="none" xmlns="http://www.w3.org/2000/svg">
<g filter="url(#filter0_d_1535_14463)">
<path d="M24.638 7.6054C24.638 7.6054 17.9822 7.74652 14.4006 12.1748C10.8265 16.5963 8.05515 27.3477 24.6986 37.3062C24.6986 37.3062 37.9346 31.9036 38.7903 21.3403C39.6384 10.9585 32.2707 7.3635 24.638 7.6054Z" fill="#E30613"/>
<path d="M35.8904 22.4827C35.8904 22.4827 33.649 22.1198 31.2108 21.0312C30.4612 20.6953 29.8402 20.5138 29.3405 20.4265C29.9538 20.0435 30.5066 19.4857 31.0291 18.7466C31.8847 17.5236 33.1568 15.7496 33.1568 15.7496C33.1947 15.6959 33.1871 15.6287 33.1417 15.5749C33.0962 15.5211 33.0205 15.501 32.9448 15.5211C31.3395 15.8773 29.7721 16.9188 28.6287 17.6781C28.1365 18.0074 27.7125 18.2896 27.4853 18.377C27.4399 18.3904 27.4096 18.3972 27.3869 18.3972C27.0916 17.1003 26.9553 15.716 27.5762 14.1974C28.3561 12.289 26.872 10.4277 26.8114 10.347C26.7584 10.2866 26.6675 10.2664 26.5842 10.2866C26.501 10.3134 26.4555 10.3873 26.4631 10.4545C26.4631 10.4747 26.7963 12.289 24.9638 14.6879C24.1309 15.7765 23.8659 16.9591 23.828 17.9738C23.1011 17.275 22.2833 16.8248 21.2308 16.5089C19.5422 16.0117 17.5583 14.614 17.5432 14.6006C17.4826 14.5535 17.3842 14.5468 17.316 14.5871C17.2479 14.6274 17.2176 14.7014 17.2403 14.7618C17.2781 14.8559 18.1944 17.107 19.8375 17.9671C20.7083 18.424 21.3822 19.2573 21.7987 19.8956C21.1172 20.1107 20.1253 20.5407 19.3453 21.4075C18.3004 22.5566 14.8475 23.1748 14.8096 23.1815C14.7264 23.195 14.6582 23.2622 14.6582 23.3361C14.6582 23.41 14.7188 23.4705 14.8096 23.4906C17.9748 24.0416 21.8365 22.355 21.9804 22.2878C22.359 22.1601 22.6543 22.1803 22.8588 22.355C23.2374 22.6843 23.245 23.4974 22.8739 24.129C22.2984 25.0966 22.2606 27.0319 22.5938 27.4015C22.677 27.4955 22.7831 27.509 22.8436 27.509C22.8512 27.509 22.8664 27.509 22.8739 27.509C23.1238 27.4754 23.1844 27.3544 23.2601 27.2133C23.3661 27.005 23.5857 26.5749 24.5852 25.7014C25.3879 24.9958 25.6832 24.344 25.7665 23.8535C26.1375 24.25 26.7281 24.6598 27.6746 24.8816C29.5525 25.3184 29.81 25.8761 29.81 25.8828C29.8327 25.95 29.916 25.9971 29.9993 25.9903C30.0144 25.9903 30.022 25.9903 30.0371 25.9903C30.1356 25.9702 30.1961 25.8895 30.181 25.8089C30.1583 25.7283 29.6737 23.8199 28.5151 23.0203C28.394 22.9329 28.2804 22.8523 28.1668 22.7716C28.6969 22.859 29.3556 22.9799 30.1658 23.1546C30.9912 23.3294 31.809 23.3764 32.5662 23.3562C34.4062 23.3025 35.8525 22.8254 35.9358 22.7985C36.0115 22.7716 36.0645 22.7044 36.0494 22.6372C36.0494 22.57 35.9812 22.5163 35.8979 22.5028" fill="#52AE32"/>
</g>
<defs>
<filter id="filter0_d_1535_14463" x="-3.6001" y="-1.5813" width="57.7454" height="52.0629" filterUnits="userSpaceOnUse" color-interpolation-filters="sRGB">
<feFlood flood-opacity="0" result="BackgroundImageFix"/>
<feColorMatrix in="SourceAlpha" type="matrix" values="0 0 0 0 0 0 0 0 0 0 0 0 0 0 0 0 0 0 127 0" result="hardAlpha"/>
<feOffset dy="2"/>
<feGaussianBlur stdDeviation="2"/>
<feComposite in2="hardAlpha" operator="out"/>
<feColorMatrix type="matrix" values="0 0 0 0 0.109804 0 0 0 0 0.109804 0 0 0 0 0.109804 0 0 0 0.2 0"/>
<feBlend mode="normal" in2="BackgroundImageFix" result="effect1_dropShadow_1535_14463"/>
<feBlend mode="normal" in="SourceGraphic" in2="effect1_dropShadow_1535_14463" result="shape"/>
</filter>
</defs>
</svg>
